icons/lines/wanchain--wan--one.svg

<svg xmlns="http://www.w3.org/2000/svg" width="24" height="24" viewBox="0 0 24 24" fill="none" stroke="currentColor" stroke-width="2" stroke-linecap="round" stroke-linejoin="round">
  <path d="m8.5 15 3.2-5.6 2.8 4.8c.2.3 0 .8-.4.8z" />
  <path d="M8.9 3a.547.547 0 0 0-.5.8L11.5 9H5.3c-.2 0-.4.1-.4.2l-3.7 5.5a.64.64 0 0 0 0 .6l3.4 5.1c.2.3.7.3.8 0l2.5-4.2a.468.468 0 0 1 .8 0l3.1 4.7c.1.1.2.2.4.2h6.5c.2 0 .3-.1.4-.2l3.7-5.5c.1-.2.1-.4 0-.5L16.1 3.2c0-.1-.2-.2-.4-.2z" />
</svg>

<svg xmlns="http://www.w3.org/2000/svg" width="24" height="24" viewBox="0 0 24 24" fill="none" stroke="currentColor" stroke-width="2" stroke-linecap="round" stroke-linejoin="round" >
  <path d="M15.7 3H8.9C8.5 3 8.2 3.4 8.4 3.8L11.5 9H5.3C5.1 9 4.9 9.1 4.9 9.2L1.2 14.7C1.1 14.9 1.1 15.1 1.2 15.3L4.6 20.4C4.8 20.7 5.3 20.7 5.4 20.4L7.9 16.2C8.1 15.9 8.5 15.9 8.7 16.2L11.8 20.9C11.9 21 12 21.1 12.2 21.1H18.7C18.9 21.1 19 21 19.1 20.9L22.8 15.4C22.9 15.2 22.9 15 22.8 14.9L16.1 3.2C16.1 3.1 15.9 3 15.7 3ZM8.5 15L11.7 9.4L14.5 14.2C14.7 14.5 14.5 15 14.1 15H8.5Z" stroke-miterlimit="10"/>
  </svg>
